svg/error-diamond.svg

<?xml version="1.0" encoding="UTF-8"?>
<svg xmlns="http://www.w3.org/2000/svg" xmlns:xlink="http://www.w3.org/1999/xlink" width="32" height="32" viewBox="0 0 32 32">
<path fill-rule="nonzero" fill="rgb(0%, 0%, 0%)" fill-opacity="1" d="M 31.238281 14.140625 L 17.859375 0.761719 C 16.882812 -0.214844 15.164062 -0.238281 14.074219 0.765625 L 0.761719 14.140625 C -0.253906 15.15625 -0.261719 16.8125 0.761719 17.925781 L 14.074219 31.238281 C 14.570312 31.730469 15.246094 32.003906 15.945312 32 C 16.648438 32 17.324219 31.734375 17.859375 31.238281 L 31.171875 17.925781 C 32.234375 16.863281 32.261719 15.164062 31.238281 14.140625 M 14.976562 9.214844 C 14.976562 9.085938 15.039062 8.960938 15.234375 8.960938 L 16.703125 8.960938 C 16.832031 8.960938 16.960938 9.023438 16.960938 9.214844 L 16.960938 18.496094 C 16.960938 18.621094 16.894531 18.753906 16.703125 18.753906 L 15.234375 18.753906 C 15.105469 18.753906 14.976562 18.6875 14.976562 18.496094 Z M 17.023438 22.847656 C 17.023438 22.976562 16.960938 23.101562 16.765625 23.101562 L 15.234375 23.101562 C 15.105469 23.101562 14.976562 23.039062 14.976562 22.847656 L 14.976562 21.121094 C 14.976562 20.992188 15.039062 20.863281 15.234375 20.863281 L 16.765625 20.863281 L 16.765625 20.925781 C 16.898438 20.925781 17.023438 20.992188 17.023438 21.183594 Z M 17.023438 22.847656 "/>
</svg>

<svg role="img" viewBox="0 0 32 32" height="32" width="32" xmlns="http://www.w3.org/2000/svg"><path d="M31.238 14.14 17.86.763c-.976-.977-2.695-1-3.785.004L.762 14.14c-1.016 1.015-1.024 2.672 0 3.785l13.312 13.312a2.64 2.64 0 0 0 1.871.762c.703 0 1.38-.266 1.914-.762l13.313-13.312c1.062-1.063 1.09-2.762.066-3.785M14.977 9.216c0-.13.062-.254.257-.254h1.47c.128 0 .257.062.257.254v9.281c0 .125-.066.258-.258.258h-1.469c-.129 0-.257-.067-.257-.258Zm2.046 13.633c0 .129-.062.254-.257.254h-1.532c-.129 0-.257-.063-.257-.254V21.12c0-.129.062-.258.257-.258h1.532v.063c.132 0 .257.066.257.258Zm0 0"/></svg>
